vote.svg

<svg height="128pt" viewBox="0 0 128 128" width="128pt" xmlns="http://www.w3.org/2000/svg"><path d="m.33 44.74c3.01-.08 6.03.06 9.03-.08 2.93 9.79 5.78 19.6 8.55 29.43 1.92-.96 1.45-4.23 2.46-6.1 2.28-7.73 4.56-15.45 6.73-23.2 2.97-.15 5.95-.05 8.92-.05-4.42 12.83-8.59 25.75-13.01 38.58-3.21.06-6.43.09-9.64-.04-4.5-12.79-8.59-25.74-13.04-38.54z" fill="#00a8fe"/><path d="m68.77 48.1c2.63-.01 5.25.04 7.87-.04l-.01.42c-.08 2.05-.11 4.11-.04 6.16 1.79.02 3.59.02 5.38-.03l.11-.01c-.5 1.97-.12 4-.28 6-1.73.05-3.48-.03-5.21.01-.01 4.82-.08 9.65.03 14.47.26 2.62 3.32 2.47 5.23 2.36-.04 1.93.03 3.86-.11 5.79-3.47.4-7.18.49-10.38-1.14-1.69-1.15-2.27-3.15-2.57-5.06-.15-4.46.08-8.91-.08-13.37 0-.68.01-2.04.01-2.72-.63-.06-1.9-.18-2.53-.25-.36-.03-1.09-.09-1.45-.12-.05-1.97-.03-3.94 0-5.91 1.33-.02 2.66-.03 3.99-.04.12-2.17-.07-4.35.04-6.52z" fill="#00a8fe"/><path d="m40.05 56.59c5.88-4.09 15.25-3.38 19.84 2.38 3.72 5.89 3.97 14.12-.05 19.92-4.46 5.91-13.45 6.35-19.58 2.95-3.3-2.33-5.21-6.16-5.75-10.1-.64-5.46.59-11.98 5.54-15.15m2.65 8.89c-.89 4.2-.46 9.28 3.15 12.13l.55-.25-.04.3c2.32.62 5.04.28 6.56-1.78 2.13-3.02 2.11-7.01 1.47-10.5l-.21-.07c-.2-3.01-3.15-5.71-6.25-5.19-2.83.13-4.69 2.8-5.23 5.36z" fill="#00a8fe"/><path d="m86.92 59.79c4.17-6.59 14.18-7.47 20.19-3.01 3.87 3.53 5.1 8.93 4.69 13.99-6.56.12-13.13-.05-19.69.08-.27 3.45 2.13 6.94 5.7 7.29 1.98.1 4.31-.24 5.59-1.94.34-.43 1.03-1.3 1.38-1.73 2.29.07 4.59 0 6.89.1-1.67 9.25-13.58 11.43-20.89 7.63-5.51-3.42-7.01-10.44-6.14-16.48.46-2.08 1.08-4.15 2.28-5.93m5.25 5.99c3.27.23 6.6.13 9.89.06l.86.44c.36-.26 1.08-.77 1.43-1.02-.55-2.25-1.9-4.66-4.37-5.14-3.71-1.35-7.52 1.98-7.81 5.66z" fill="#00a8fe"/><path d="m115.34 82.93c-3.47-2.14-1.75-7.6 2.08-8.09 1.69.26 3.67.74 4.41 2.49 1.86 3.82-3 8.23-6.49 5.6z" fill="#00a8fe"/><g fill="#212225"><path d="m9.36 44.66c2.12 1.73 3.99 3.76 5.85 5.76 1.74 5.85 3.34 11.75 5.16 17.57-1.01 1.87-.54 5.14-2.46 6.1-2.77-9.83-5.62-19.64-8.55-29.43z"/><path d="m36.02 44.74c1.8 1.79 3.56 3.62 5.41 5.35.31 2.23-2.3 4.5-1.38 6.5-4.95 3.17-6.18 9.69-5.54 15.15-2.13 5.57-3.77 11.33-5.8 16.93-3.34-.08-6.78.35-10.05-.2-1.71-1.78-3.42-3.57-5.29-5.19 3.21.13 6.43.1 9.64.04 4.42-12.83 8.59-25.75 13.01-38.58z"/><path d="m76.63 48.48c2.05 1.41 4.97 3.56 5.34 6.13-1.79.05-3.59.05-5.38.03-.07-2.05-.04-4.11.04-6.16z"/><path d="m82.08 54.6c1.49 1.85 3.35 3.34 4.84 5.19-1.2 1.78-1.82 3.85-2.28 5.93-.59.11-1.76.33-2.35.44.05 3.83-.07 7.66.02 11.5 1.66 1.74 3.41 3.4 5.09 5.13.3 1.88.07 3.83.09 5.73-2.87.4-5.86.44-8.69-.31-3.21-.98-5.1-3.93-7.44-6.12 3.2 1.63 6.91 1.54 10.38 1.14.14-1.93.07-3.86.11-5.79-1.91.11-4.97.26-5.23-2.36-.11-4.82-.04-9.65-.03-14.47 1.73-.04 3.48.04 5.21-.01.16-2-.22-4.03.28-6z"/><path d="m107.11 56.78c5.72 4.1 11.32 10.45 10.31 18.06-3.83.49-5.55 5.95-2.08 8.09 3.49 2.63 8.35-1.78 6.49-5.6 1.89.87 3.05 2.79 4.56 4.19 2.7 2.63.38 7.9-3.42 7.45-3.27-.07-4.61-3.63-7.06-5.17-3.4 5.11-10.38 6.47-16.02 4.98-3.8-.84-6.72-3.68-9.11-6.58 7.31 3.8 19.22 1.62 20.89-7.63-2.3-.1-4.6-.03-6.89-.1-.35.43-1.04 1.3-1.38 1.73-1.84-.03-3.69-.06-5.53.01-.02.48-.05 1.45-.06 1.93-3.57-.35-5.97-3.84-5.7-7.29 6.56-.13 13.13.04 19.69-.08.41-5.06-.82-10.46-4.69-13.99z"/><path d="m59.89 58.97c3.39 2.75 7.01 6.05 7.88 10.57 1.78 6.43.16 14.76-6.18 18.09-7.3 3.9-16.83.97-21.33-5.79 6.13 3.4 15.12 2.96 19.58-2.95 4.02-5.8 3.77-14.03.05-19.92z"/><path d="m42.7 65.48c.54-2.56 2.4-5.23 5.23-5.36 3.1-.52 6.05 2.18 6.25 5.19-4.92.29-7.16 6.45-5.64 10.51-.61.65-1.32 1.17-2.14 1.54l-.55.25c-3.61-2.85-4.04-7.93-3.15-12.13z"/><path d="m92.17 65.78c.29-3.68 4.1-7.01 7.81-5.66 2.47.48 3.82 2.89 4.37 5.14-.57.14-1.72.43-2.29.58-3.29.07-6.62.17-9.89-.06z"/><path d="m66.19 60.69c.63.07 1.9.19 2.53.25 0 .68-.01 2.04-.01 2.72-1.02.12-2.97-1.82-2.52-2.97z"/></g></svg>

<?xml version="1.0" encoding="UTF-8" ?>
<!DOCTYPE svg PUBLIC "-//W3C//DTD SVG 1.1//EN" "http://www.w3.org/Graphics/SVG/1.1/DTD/svg11.dtd">
<svg width="128pt" height="128pt" viewBox="0 0 128 128" version="1.1" xmlns="http://www.w3.org/2000/svg">
<g id="#00a8feff">
<path fill="#00a8fe" opacity="1.00" d=" M 0.33 44.74 C 3.34 44.66 6.36 44.80 9.36 44.66 C 12.29 54.45 15.14 64.26 17.91 74.09 C 19.83 73.13 19.36 69.86 20.37 67.99 C 22.65 60.26 24.93 52.54 27.10 44.79 C 30.07 44.64 33.05 44.74 36.02 44.74 C 31.60 57.57 27.43 70.49 23.01 83.32 C 19.80 83.38 16.58 83.41 13.37 83.28 C 8.87 70.49 4.78 57.54 0.33 44.74 Z" />
<path fill="#00a8fe" opacity="1.00" d=" M 68.77 48.10 C 71.40 48.09 74.02 48.14 76.64 48.06 L 76.63 48.48 C 76.55 50.53 76.52 52.59 76.59 54.64 C 78.38 54.66 80.18 54.66 81.97 54.61 L 82.08 54.60 C 81.58 56.57 81.96 58.60 81.80 60.60 C 80.07 60.65 78.32 60.57 76.59 60.61 C 76.58 65.43 76.51 70.26 76.62 75.08 C 76.88 77.70 79.94 77.55 81.85 77.44 C 81.81 79.37 81.88 81.30 81.74 83.23 C 78.27 83.63 74.56 83.72 71.36 82.09 C 69.67 80.94 69.09 78.94 68.79 77.03 C 68.64 72.57 68.87 68.12 68.71 63.66 C 68.71 62.98 68.72 61.62 68.72 60.94 C 68.09 60.88 66.82 60.76 66.19 60.69 C 65.83 60.66 65.10 60.60 64.74 60.57 C 64.69 58.60 64.71 56.63 64.74 54.66 C 66.07 54.64 67.40 54.63 68.73 54.62 C 68.85 52.45 68.66 50.27 68.77 48.10 Z" />
<path fill="#00a8fe" opacity="1.00" d=" M 40.05 56.59 C 45.93 52.50 55.30 53.21 59.89 58.97 C 63.61 64.86 63.86 73.09 59.84 78.89 C 55.38 84.80 46.39 85.24 40.26 81.84 C 36.96 79.51 35.05 75.68 34.51 71.74 C 33.87 66.28 35.10 59.76 40.05 56.59 M 42.70 65.48 C 41.81 69.68 42.24 74.76 45.85 77.61 L 46.40 77.36 L 46.36 77.66 C 48.68 78.28 51.40 77.94 52.92 75.88 C 55.05 72.86 55.03 68.87 54.39 65.38 L 54.18 65.31 C 53.98 62.30 51.03 59.60 47.93 60.12 C 45.10 60.25 43.24 62.92 42.70 65.48 Z" />
<path fill="#00a8fe" opacity="1.00" d=" M 86.92 59.79 C 91.09 53.20 101.10 52.32 107.11 56.78 C 110.98 60.31 112.21 65.71 111.80 70.77 C 105.24 70.89 98.67 70.72 92.11 70.85 C 91.84 74.30 94.24 77.79 97.81 78.14 C 99.79 78.24 102.12 77.90 103.40 76.20 C 103.74 75.77 104.43 74.90 104.78 74.47 C 107.07 74.54 109.37 74.47 111.67 74.57 C 110.00 83.82 98.09 86.00 90.78 82.20 C 85.27 78.78 83.77 71.76 84.64 65.72 C 85.10 63.64 85.72 61.57 86.92 59.79 M 92.17 65.78 C 95.44 66.01 98.77 65.91 102.06 65.84 L 102.92 66.28 C 103.28 66.02 104.00 65.51 104.35 65.26 C 103.80 63.01 102.45 60.60 99.98 60.12 C 96.27 58.77 92.46 62.10 92.17 65.78 Z" />
<path fill="#00a8fe" opacity="1.00" d=" M 115.34 82.93 C 111.87 80.79 113.59 75.33 117.42 74.84 C 119.11 75.10 121.09 75.58 121.83 77.33 C 123.69 81.15 118.83 85.56 115.34 82.93 Z" />
</g>
<g id="#212225fe">
<path fill="#212225" opacity="1.00" d=" M 9.36 44.66 C 11.48 46.39 13.35 48.42 15.21 50.42 C 16.95 56.27 18.55 62.17 20.37 67.99 C 19.36 69.86 19.83 73.13 17.91 74.09 C 15.14 64.26 12.29 54.45 9.36 44.66 Z" />
<path fill="#212225" opacity="1.00" d=" M 36.02 44.74 C 37.82 46.53 39.58 48.36 41.43 50.09 C 41.74 52.32 39.13 54.59 40.05 56.59 C 35.10 59.76 33.87 66.28 34.51 71.74 C 32.38 77.31 30.74 83.07 28.71 88.67 C 25.37 88.59 21.93 89.02 18.66 88.47 C 16.95 86.69 15.24 84.90 13.37 83.28 C 16.58 83.41 19.80 83.38 23.01 83.32 C 27.43 70.49 31.60 57.57 36.02 44.74 Z" />
<path fill="#212225" opacity="1.00" d=" M 76.63 48.48 C 78.68 49.89 81.60 52.04 81.97 54.61 C 80.18 54.66 78.38 54.66 76.59 54.64 C 76.52 52.59 76.55 50.53 76.63 48.48 Z" />
<path fill="#212225" opacity="1.00" d=" M 82.08 54.60 C 83.57 56.45 85.43 57.94 86.92 59.79 C 85.72 61.57 85.10 63.64 84.64 65.72 C 84.05 65.83 82.88 66.05 82.29 66.16 C 82.34 69.99 82.22 73.82 82.31 77.66 C 83.97 79.40 85.72 81.06 87.40 82.79 C 87.70 84.67 87.47 86.62 87.49 88.52 C 84.62 88.92 81.63 88.96 78.80 88.21 C 75.59 87.23 73.70 84.28 71.36 82.09 C 74.56 83.72 78.27 83.63 81.74 83.23 C 81.88 81.30 81.81 79.37 81.85 77.44 C 79.94 77.55 76.88 77.70 76.62 75.08 C 76.51 70.26 76.58 65.43 76.59 60.61 C 78.32 60.57 80.07 60.65 81.80 60.60 C 81.96 58.60 81.58 56.57 82.08 54.60 Z" />
<path fill="#212225" opacity="1.00" d=" M 107.11 56.78 C 112.83 60.88 118.43 67.23 117.42 74.84 C 113.59 75.33 111.87 80.79 115.34 82.93 C 118.83 85.56 123.69 81.15 121.83 77.33 C 123.72 78.20 124.88 80.12 126.39 81.52 C 129.09 84.15 126.77 89.42 122.97 88.97 C 119.70 88.90 118.36 85.34 115.91 83.80 C 112.51 88.91 105.53 90.27 99.89 88.78 C 96.09 87.94 93.17 85.10 90.78 82.20 C 98.09 86.00 110.00 83.82 111.67 74.57 C 109.37 74.47 107.07 74.54 104.78 74.47 C 104.43 74.90 103.74 75.77 103.40 76.20 C 101.56 76.17 99.71 76.14 97.87 76.21 C 97.85 76.69 97.82 77.66 97.81 78.14 C 94.24 77.79 91.84 74.30 92.11 70.85 C 98.67 70.72 105.24 70.89 111.80 70.77 C 112.21 65.71 110.98 60.31 107.11 56.78 Z" />
<path fill="#212225" opacity="1.00" d=" M 59.89 58.97 C 63.28 61.72 66.90 65.02 67.77 69.54 C 69.55 75.97 67.93 84.30 61.59 87.63 C 54.29 91.53 44.76 88.60 40.26 81.84 C 46.39 85.24 55.38 84.80 59.84 78.89 C 63.86 73.09 63.61 64.86 59.89 58.97 Z" />
<path fill="#212225" opacity="1.00" d=" M 42.70 65.48 C 43.24 62.92 45.10 60.25 47.93 60.12 C 51.03 59.60 53.98 62.30 54.18 65.31 C 49.26 65.60 47.02 71.76 48.54 75.82 C 47.93 76.47 47.22 76.99 46.40 77.36 L 45.85 77.61 C 42.24 74.76 41.81 69.68 42.70 65.48 Z" />
<path fill="#212225" opacity="1.00" d=" M 92.17 65.78 C 92.46 62.10 96.27 58.77 99.98 60.12 C 102.45 60.60 103.80 63.01 104.35 65.26 C 103.78 65.40 102.63 65.69 102.06 65.84 C 98.77 65.91 95.44 66.01 92.17 65.78 Z" />
<path fill="#212225" opacity="1.00" d=" M 66.19 60.69 C 66.82 60.76 68.09 60.88 68.72 60.94 C 68.72 61.62 68.71 62.98 68.71 63.66 C 67.69 63.78 65.74 61.84 66.19 60.69 Z" />
</g>
</svg>
